app/assets/icon/twitter_logo.svg

<svg width="23" height="18" viewBox="0 0 28 23" fill="none" xmlns="http://www.w3.org/2000/svg">
<path d="M9.05707 24.3937C19.9371 24.3937 25.8905 15.006 25.8905 6.87874C25.8905 6.61464 25.8905 6.35053 25.879 6.08643C27.0328 5.22208 28.0365 4.12965 28.8326 2.89315C27.7712 3.38535 26.6289 3.70948 25.429 3.86554C26.652 3.10924 27.5866 1.89676 28.0365 0.456182C26.8943 1.16446 25.6252 1.66867 24.2753 1.94478C23.1907 0.744297 21.6562 0 19.9602 0C16.695 0 14.0413 2.7611 14.0413 6.15846C14.0413 6.63865 14.099 7.10684 14.1913 7.56302C9.27629 7.31092 4.91505 4.84994 1.99602 1.12845C1.48836 2.04081 1.19992 3.09724 1.19992 4.22569C1.19992 6.36254 2.24985 8.24729 3.83051 9.35173C2.86134 9.31572 1.94987 9.03961 1.15377 8.58342C1.15377 8.60743 1.15377 8.63145 1.15377 8.66746C1.15377 11.6446 3.19594 14.1416 5.89575 14.7059C5.39963 14.8499 4.88043 14.922 4.33816 14.922C3.95742 14.922 3.58822 14.8859 3.23055 14.8139C3.9805 17.2629 6.17265 19.0396 8.75709 19.0876C6.72646 20.7443 4.17664 21.7287 1.4076 21.7287C0.934552 21.7287 0.461507 21.7047 0 21.6446C2.60751 23.3733 5.72269 24.3937 9.05707 24.3937Z" fill="#34495E"/>
</svg>

<svg width="23" height="18" viewBox="0 0 28 23" xmlns="http://www.w3.org/2000/svg"><path d="M9.057 24.394c10.88 0 16.834-9.388 16.834-17.515 0-.264 0-.528-.012-.793a12.336 12.336 0 0 0 2.954-3.193 11.628 11.628 0 0 1-3.404.973c1.223-.757 2.158-1.97 2.608-3.41a11.493 11.493 0 0 1-3.762 1.489C23.191.745 21.656 0 19.96 0c-3.265 0-5.919 2.761-5.919 6.158 0 .48.058.949.15 1.405C9.276 7.311 4.915 4.85 1.996 1.128A6.35 6.35 0 0 0 1.2 4.226c0 2.137 1.05 4.021 2.63 5.126a5.808 5.808 0 0 1-2.676-.769v.084c0 2.978 2.042 5.475 4.742 6.039a5.56 5.56 0 0 1-1.558.216 5.6 5.6 0 0 1-1.107-.108c.75 2.449 2.942 4.226 5.526 4.274-2.03 1.656-4.58 2.64-7.35 2.64-.472 0-.945-.023-1.407-.083a16.356 16.356 0 0 0 9.057 2.749Z"/></svg>
